svg/progress_helper.svg

<svg xmlns="http://www.w3.org/2000/svg" viewBox="0 0 24 24"><path d="M13 2v2c4.39.54 7.5 4.53 6.96 8.92A8.014 8.014 0 0 1 13 19.88v2c5.5-.6 9.45-5.54 8.85-11.03C21.33 6.19 17.66 2.5 13 2m-2 0c-1.96.18-3.81.95-5.33 2.2L7.1 5.74c1.12-.9 2.47-1.48 3.9-1.68zM4.26 5.67A9.8 9.8 0 0 0 2.05 11h2c.19-1.42.75-2.77 1.64-3.9zM2.06 13c.2 1.96.97 3.81 2.21 5.33l1.42-1.43A8 8 0 0 1 4.06 13zm5 5.37-1.39 1.37A10 10 0 0 0 11 22v-2a8 8 0 0 1-3.9-1.63z"/></svg>

<svg xmlns="http://www.w3.org/2000/svg" id="mdi-progress-helper" viewBox="0 0 24 24"><path d="M13 2V4C17.39 4.54 20.5 8.53 19.96 12.92C19.5 16.56 16.64 19.43 13 19.88V21.88C18.5 21.28 22.45 16.34 21.85 10.85C21.33 6.19 17.66 2.5 13 2M11 2C9.04 2.18 7.19 2.95 5.67 4.2L7.1 5.74C8.22 4.84 9.57 4.26 11 4.06V2M4.26 5.67C3 7.19 2.24 9.04 2.05 11H4.05C4.24 9.58 4.8 8.23 5.69 7.1L4.26 5.67M2.06 13C2.26 14.96 3.03 16.81 4.27 18.33L5.69 16.9C4.81 15.77 4.24 14.42 4.06 13H2.06M7.06 18.37L5.67 19.74C7.18 21 9.04 21.79 11 22V20C9.58 19.82 8.23 19.25 7.1 18.37H7.06Z" /></svg>
